!! Isochronous pitch passage.
!! Treble-line.
!! From Shostakovich, Preludes & Fugues, Opus 87, Prelude No. 21, bar 2ff.
!! Piano
!! 4/4 meter
**kern	**metpos
*M4/4	*M4/4
*tb16	*tb16
=2	=2
16r	1
16r	5
16r	4
16r	5
16r	3
16r	5
16r	4
16r	5
16r	2
16r	5
16r	4
16r	5
16r	3
16f	5
16g	4
16a	5
=3	=3
16b-	1
16a	5
16g	4
16f	5
16g	3
16f	5
16g	4
16a	5
16b-	2
16a	5
16g	4
16a	5
16b-	3
16cc	5
16dd	4
16ee-	5
=4	=4
16ff	1
16gg	5
16aa	4
16bb-	5
16aa	3
16bb-	5
16aa	4
16gg	5
16ff	2
16gg	5
16aa	4
16bb-	5
16aa	3
16bb-	5
16aa	4
16gg	5
=5	=5
16ff	1
16gg	5
16aa	4
16bb-	5
16ee-	3
16ff	5
16gg	4
16aa	5
16dd	2
16ee-	5
16ff	4
16gg	5
16ff	3
16b-	5
16cc	4
16dd	5
=6	=6
16ee-	1
16cc	5
16b-	4
16cc	5
16dd	3
16f	5
16g	4
16a	5
16b-	2
16a	5
16g	4
16f	5
16g	3
16f	5
16g	4
16a	5
=7	=7
16b-	1
16a	5
16g	4
16f	5
16g	3
16f	5
16g	4
16a	5
16b-	2
16a	5
16g	4
16f	5
16g	3
16a	5
16b-	4
16cc	5
=8	=8
16dd	1
16ee-	5
16dd	4
16cc	5
16b-	3
16cc	5
16dd	4
16ee-	5
16dd	2
16ee-	5
16ff	4
16gg-	5
16ff	3
16gg-	5
16ff	4
16ee-	5
=9	=9
16dd	1
16ee-	5
16dd	4
16cc	5
16b-	3
16cc	5
16dd	4
16ee-	5
16dd	2
16ee-	5
16ff	4
16gg-	5
16ff	3
16gg-	5
16ff	4
16ee-	5
=10	=10
16dd	1
16cc	5
16dd	4
16ee-	5
16ff	3
16ee-	5
16dd	4
16cc	5
16dd	2
16cc	5
16dd	4
16ee-	5
16ff	3
16ee-	5
16dd	4
16cc	5
=11	=11
16dd	1
16cc	5
16dd	4
16ee-	5
16cc	3
16b-	5
16cc	4
16dd	5
16ee-	2
16dd	5
16ee-	4
16ff	5
16dd	3
16cc	5
16bn	4
16cc	5
=12	=12
*-	*-
